!!!COM: Debussy, (Achille-)Claude
!!!OTL: La Boîte à joujoux (The Toy Box), Ballet for Children
!!!OMV: Tableau 1: Le magasin de jouets (Le soldat anglais)
!!!example: 187
!!!work: Deb-42
**kern	**kern	**dynam
*grp:A	*grp:B	*grp:B
*part1	*part1	*part1
*staff2	*staff1	*
*I"Piano	*	*
*I'Pno.	*	*
*clefF4	*clefG2	*
*k[b-]	*k[b-]	*
*F:	*F:	*
*M2/4	*M2/4	*
*MM107	*MM107	*
*8ba	*	*
=122	=122	=122
*^	*	*
8AAA'L	8GGG	2r	.
8AAA'J	8r	.	.
8AAA'L	8GGG	.	.
8AAA'J	8r	.	.
=123	=123	=123	=123
8AAA'L	8GGG	2r	.
8AAA'J	8r	.	.
8AAA'L	8GGG	.	.
8AAA'J	8r	.	.
=124	=124	=124	=124
8AAA'L	8GGG	2r	.
8AAA'J	8r	.	.
8AAA'L	8GGG	.	.
8AAA'J	8r	.	.
=125	=125	=125	=125
8AAA'L	8GGG	2r	.
8AAA'J	8r	.	.
8AAA'L	8GGG	.	.
8AAA'J	8r	.	.
*v	*v	*	*
=126	=126	=126
*	*8va	*
*^	*	*
8AAA'L	8GGG	(16aaaKL	pp
.	.	8cccc)	.
8AAA'J	8r	.	.
.	.	(16aaaJk	.
8AAA'L	8GGG	8cccc'L)	.
8AAA'J	8r	8aaa'J	.
=127	=127	=127	=127
8AAA'L	8GGG	(16aaaKL	.
.	.	8cccc)	.
8AAA'J	8r	.	.
.	.	(16fffJk	.
8AAA'L	8GGG	8aaa'L)	.
8AAA'J	8r	8fff'J	.
=128	=128	=128	=128
8AAA'L	8GGG	(16dddKL	.
.	.	8fff)	.
8AAA'J	8r	.	.
.	.	(16dddJk	.
8AAA'L	8GGG	8fff'L)	.
8AAA'J	8r	(16dddL	.
.	.	16fffJJ	.
=129	=129	=129	=129
8AAA'L	8GGG	2ddd)	.
8AAA'J	8r	.	.
8AAA'L	8GGG	.	.
8AAA'J	8r	.	.
=130	=130	=130	=130
8AAA'L	8GGG	(16cccKL	.
.	.	8ddd)	.
8AAA'J	8r	.	.
.	.	(16cccJk	.
8AAA'L	8GGG	8aa'L)	.
8AAA'J	8r	8ccc'J	.
*v	*v	*	*
=131	=131	=131
*	*X8va	*
*^	*	*
8AAA'L	8GGG	(16aaKL	.
.	.	8bb-)	.
8AAA'J	8r	.	.
.	.	(16aaJk	.
8AAA'L	8GGG	4ff~)	.
8AAA'J	8r	.	.
=132	=132	=132	=132
8AAA'L	8GGG	(16ffKL	.
.	.	8gg)	.
8AAA'J	8r	.	.
.	.	16ffJk	.
8AAA'L	8GGG	8ccL	.
8AAA'J	8r	(16ccL	.
.	.	16eeJJ	.
=133	=133	=133	=133
8AAA'L	8GGG	2cc)	.
8AAA'J	8r	.	.
8AAA'L	8GGG	.	.
8AAA'J	8r	.	.
*v	*v	*	*
*	*clefF4	*
=134	=134	=134
*X8ba	*	*
8F'L	(16AKL	p
.	8c)	.
8f'J	.	.
.	(16AJk	.
8E'L	8c'L)	.
8e'J	8A'J	.
=135	=135	=135
8D'L	(16AKL	.
.	8c)	.
8d'J	.	.
.	(16FJk	.
8C'L	8A'L)	.
8c'J	8F'J	.
=136	=136	=136
8BB-'L	(16DKL	.
.	8F)	.
8B-'J	.	.
.	(16DJk	.
8AA'L	8F'L)	.
8A'J	(16DL	.
.	16FJJ	.
=137	=137	=137
8GG'L	2D)	.
8G'J	.	.
8BB-'L	.	.
8B-'J	.	.
=	=	=
*-	*-	*-
!!!system-decoration: {(s1,s2)}
!!!CDT: 1862/08/22-1918/03/25
!!!CBL: St Germain-en-Laye, France
!!!CDL: Paris, France
!!!CNT: French
!!!AGN: Stage; Ballet
!!!MCN: Inghelbrecht, Désiré-Émile
!!!MDT: 1919/12/10
!!!MGN: Orchestre du Théâtre du Vaudeville
!!!MLC: Paris, France
!!!MPD: 1919
!!!MPN:
!!!ODT: 1913
!!!PDT: 1920
!!!excerpt-start-measure: 122
!!!excerpt-end-measure: 137
!!!excerpt-start-time: 3:44
!!!excerpt-end-time: 4:02
!!!EEV: 2020/01/25
!!!ONB: Converted from MusicXML on 2020/01/25
